X:95
T: 'T Hmelmaous (1-19), S. 51f
N: K0095
O: Luxemburg
S: KINTZELE, Guillaume: An der Ucht, Bd. 1, Luxemburg 1926]
N: in der Quelle mit einer 2. Stimme versehen
R: Spottlied]
M: 4/4
L: 1/8
K: Bb
F2 | B2B2B2d2 | B3FD2
FF | d3BdccA | B4z2
Bc | d2d2edcB | c3dc2
FA | ccccdcBA | B2F2D2
F2 | d3BdccA | B4z2
Bc | d2d2edcB | c3dc2
FA | ccccdcBA | B2F2D2
F2 | d3BdccA | B4z2

@@@ Tune index: 8149
